public/icons/staking/emission-staking-icon.svg

<svg width="22" height="16" viewBox="0 0 22 16" fill="none" xmlns="http://www.w3.org/2000/svg">
<path d="M3.92895 15C3.00036 14.0808 2.26376 12.9894 1.76121 11.7884C1.25866 10.5873 1 9.30002 1 8C1 6.69998 1.25866 5.41268 1.76121 4.21162C2.26376 3.01056 3.00036 1.91925 3.92895 1M18.0711 1C18.9996 1.91925 19.7362 3.01056 20.2388 4.21162C20.7413 5.41268 21 6.69998 21 8C21 9.30002 20.7413 10.5873 20.2388 11.7884C19.7362 12.9894 18.9996 14.0808 18.0711 15M7.07115 11.8883C6.02965 10.8569 5.44457 9.45832 5.44457 8C5.44457 6.54168 6.02965 5.14307 7.07115 4.11172M14.9289 4.11172C15.9704 5.14307 16.5554 6.54168 16.5554 8C16.5554 9.45832 15.9704 10.8569 14.9289 11.8883M12.1111 8C12.1111 8.29172 11.994 8.57149 11.7857 8.77777C11.5773 8.98405 11.2947 9.09994 11 9.09994C10.7053 9.09994 10.4227 8.98405 10.2143 8.77777C10.006 8.57149 9.8889 8.29172 9.8889 8C9.8889 7.70828 10.006 7.4285 10.2143 7.22223C10.4227 7.01595 10.7053 6.90006 11 6.90006C11.2947 6.90006 11.5773 7.01595 11.7857 7.22223C11.994 7.4285 12.1111 7.70828 12.1111 8Z" stroke="#A5A8B6" stroke-width="1.5" stroke-linecap="round" stroke-linejoin="round"/>
</svg>

<svg width="22" height="16" viewBox="0 0 22 16" fill="none" xmlns="http://www.w3.org/2000/svg"><path d="M3.929 15a9.893 9.893 0 0 1-2.168-3.212 9.813 9.813 0 0 1 0-7.576A9.893 9.893 0 0 1 3.93 1m14.14 0a9.896 9.896 0 0 1 2.168 3.212 9.814 9.814 0 0 1 0 7.576A9.896 9.896 0 0 1 18.07 15m-11-3.112A5.472 5.472 0 0 1 5.445 8c0-1.458.585-2.857 1.626-3.888m7.858 0A5.472 5.472 0 0 1 16.555 8a5.472 5.472 0 0 1-1.626 3.888M12.11 8c0 .292-.117.571-.325.778a1.117 1.117 0 0 1-1.572 0 1.095 1.095 0 0 1 0-1.556 1.117 1.117 0 0 1 1.572 0c.208.206.325.486.325.778Z" stroke="#A5A8B6" stroke-width="1.5" stroke-linecap="round" stroke-linejoin="round"/></svg>
